public/static/img/trade/blue-stock.svg

<svg width="16" height="16" viewBox="0 0 16 16" fill="none" xmlns="http://www.w3.org/2000/svg">
<circle cx="8" cy="8" r="8" fill="white"/>
<g clip-path="url(#clip0_226_7345)">
<rect width="9.6" height="9.6" transform="translate(3.20001 3.2002)" fill="white"/>
<path d="M4.21377 4.76079H4.2138L4.21374 4.75807C4.2114 4.65011 4.16686 4.54735 4.08967 4.47183C4.01248 4.3963 3.90879 4.354 3.8008 4.354C3.6928 4.354 3.58911 4.3963 3.51192 4.47183C3.43473 4.54735 3.39019 4.65011 3.38785 4.75807L3.38782 4.75807V4.76079V11.481C3.38782 11.709 3.57281 11.8939 3.80086 11.8939H12.2009H12.2009C12.3104 11.8938 12.4155 11.8503 12.4929 11.7729C12.5704 11.6954 12.6139 11.5904 12.6139 11.4808C12.6139 11.3713 12.5704 11.2662 12.4929 11.1888C12.4155 11.1113 12.3104 11.0678 12.2009 11.0678H12.2009H4.21377V4.76079Z" fill="#171717" stroke="#171717" stroke-width="0.25"/>
<path d="M7.51071 6.61369L5.62749 8.49705H5.62556L5.58861 8.53584C5.51427 8.6139 5.47339 8.71794 5.4747 8.82574C5.47602 8.93353 5.51942 9.03654 5.59565 9.11277C5.67188 9.189 5.77489 9.2324 5.88268 9.23372C5.99047 9.23503 6.09451 9.19415 6.17258 9.1198L6.1726 9.11983L6.17475 9.11768L7.83453 7.45803L8.64373 8.10548L8.64283 8.10651L8.74472 8.18814C8.91238 8.32246 9.15249 8.3045 9.29896 8.15348L11.4548 5.99761L11.4549 5.99765L11.4575 5.99486C11.5311 5.91665 11.5713 5.81287 11.5696 5.70551C11.568 5.59816 11.5246 5.49566 11.4486 5.41976C11.3727 5.34385 11.2702 5.30049 11.1628 5.29888C11.0555 5.29726 10.9517 5.33751 10.8735 5.41109L10.8735 5.41105L10.8708 5.41373L8.97116 7.31338L8.08655 6.60567C8.00935 6.53262 7.90686 6.49208 7.80039 6.49269C7.69168 6.49331 7.58759 6.53678 7.51073 6.61367C7.51072 6.61368 7.51072 6.61369 7.51071 6.61369Z" fill="#171717" stroke="#171717" stroke-width="0.25"/>
<path d="M11.9918 6.537L10.3791 4.92437L12.1136 4.64014L11.9918 6.537Z" fill="#171717"/>
</g>
<defs>
<clipPath id="clip0_226_7345">
<rect width="9.6" height="9.6" fill="white" transform="translate(3.20001 3.2002)"/>
</clipPath>
</defs>
</svg>

<svg width="16" height="16" fill="none" xmlns="http://www.w3.org/2000/svg"><circle cx="8" cy="8" r="8" fill="#fff"/><g clip-path="url(#a)"><path fill="#fff" d="M3.2 3.2h9.6v9.6H3.2z"/><path d="M4.214 4.76v-.002a.413.413 0 0 0-.826 0v6.723c0 .228.185.413.413.413h8.4a.414.414 0 0 0 0-.826H4.214V4.76Z" fill="#171717" stroke="#171717" stroke-width=".25"/><path d="M7.51 6.614 5.628 8.497h-.001l-.037.039a.413.413 0 0 0 .584.584l.002-.002 1.66-1.66.809.647-.001.002.102.081a.413.413 0 0 0 .554-.035l2.156-2.155.002-.003a.413.413 0 0 0-.584-.584l-.002.003-1.9 1.9-.884-.708a.413.413 0 0 0-.576.008Z" fill="#171717" stroke="#171717" stroke-width=".25"/><path d="m11.992 6.537-1.613-1.613 1.735-.284-.122 1.897Z" fill="#171717"/></g><defs><clipPath id="a"><path fill="#fff" transform="translate(3.2 3.2)" d="M0 0h9.6v9.6H0z"/></clipPath></defs></svg>
